public/assets/images/icons/tiktok.svg

<svg width="24" height="24" viewBox="0 0 24 24" fill="none" xmlns="http://www.w3.org/2000/svg">
<path d="M16.6 5.82C16.6 5.82 17.11 6.32 16.6 5.82C15.9164 5.03962 15.5397 4.03743 15.54 3H12.45V15.4C12.4262 16.071 12.1429 16.7066 11.6598 17.1729C11.1767 17.6393 10.5315 17.8999 9.86 17.9C8.44 17.9 7.26 16.74 7.26 15.3C7.26 13.58 8.92 12.29 10.63 12.82V9.66C7.18 9.2 4.16 11.88 4.16 15.3C4.16 18.63 6.92 21 9.85 21C12.99 21 15.54 18.45 15.54 15.3V9.01C16.793 9.90985 18.2974 10.3926 19.84 10.39V7.3C19.84 7.3 17.96 7.39 16.6 5.82Z" fill="white"/>
</svg>

<svg width="24" height="24" fill="none" xmlns="http://www.w3.org/2000/svg"><path d="M16.6 5.82s.51.5 0 0A4.278 4.278 0 0115.54 3h-3.09v12.4a2.592 2.592 0 01-2.59 2.5c-1.42 0-2.6-1.16-2.6-2.6 0-1.72 1.66-3.01 3.37-2.48V9.66c-3.45-.46-6.47 2.22-6.47 5.64 0 3.33 2.76 5.7 5.69 5.7 3.14 0 5.69-2.55 5.69-5.7V9.01a7.35 7.35 0 004.3 1.38V7.3s-1.88.09-3.24-1.48z" fill="#fff"/></svg>
